X:240
T:Rover Through The Bog
R:hornpipe
M:4/4
L:1/8
K:Gmaj
(3DEF|:G2 BG ABcA|defa gfdc|B2 dB cAFD|GBAF DE (3FED|
G2 BG ABcA|defa gfdB|BGBd cAFA|1AGGF G2 (3DEF:|2AGGF G2 (3def||
g2 ga gfdf|gdbg gfde|(3fff fg afge|fdec dcAF|
G2 BG ABcA|defa gfdc|BGBd cAFA|1AGGF G2 (3def:|2AGGF G2 (3DEF||

